X: 7
T: Mrs. Kinney's
Z: Jemtheflute
S: https://thesession.org/tunes/480#setting13380
R: waltz
M: 3/4
L: 1/8
K: Dmaj
FA|f3 e dc|d4 FG|A2 G2 E2|A2 c2 e2 & A,2 C2 E2|g2 f2 e2|d2 c2 B2|~A3 B AG|F2 FG ^GA|f3 e dc|d4 FG|A2 G2 E2|A2 c2 e2 & A,2 C2 E2|g2 f2 e2|d2 c2 B2|~A3 A Bc|d4:|]cB[|:Ad f2 f2|Ad f2 f2|Ad f2 f2|a^g ba =ge|Ac e2 e2|Ac e2 e2|1Ac e2 e2|a^g ba =ge:|]2 ab ag fe|d4|]|:FA|d3 e dB|c4 dc|B2 G3 B|A2 F2 D2|d3 e dB|1c4 (3BcB|A2 G2 E2|D4:|]|2c4 (3BcB|~A3 A Bc|d4|]
